X:65
T:Untitled. TBe.070
M:6/4
L:1/4
Q:3/4=100
S:Thomas Bennet MS,1718, VWML
R:.Jigg
O:England
N:See general note re accidentals Natural is bar 7 shown as sharp..c
N:sharp in bar 8 is shown as a crotchet, this is my intervention..cgp…
H:1718
Z:vmp.C. Graebe.
K:G minor
D |”_time sig 3/2 in MS” GAB cde | dcB A2 G | dBGdBG | gfg AG^F |!
GABcde | dcBA2G |gf=ef>gA | d”^cr in ms”^c2d3 ||!
d2 ef>gf | f>gff2A | B>cdefd | c3B3 |!
bfdBdf | bfdBcd | cdedcB | A3″G3 in MS”G2 |]

